public/Icons/favicon.svg

<svg id="Layer_1" data-name="Layer 1" xmlns="http://www.w3.org/2000/svg" viewBox="0 0 2499.99992 2499.99992"><defs><style>.cls-1{fill:#00274c;}.cls-1,.cls-2{fill-rule:evenodd;}.cls-2{fill:#f1c400;}</style></defs><path class="cls-1" d="M0,0H2499.99992V2499.99992H0Z"/><path class="cls-2" d="M1249.987,1118.66813,1674.215,529.322h583.71719V911.42431H2096.74406v673.70146h161.18816v385.5393H1516.02273v-385.5392H1682.373V1108.81108l-432.386,575.74081L817.614,1108.81108v476.31459H983.9772V1970.6908H242.05472l.013-385.56513H403.243V911.42431H242.06768V529.322H825.7849Z"/></svg>

<svg data-name="Layer 1" xmlns="http://www.w3.org/2000/svg" viewBox="0 0 2500 2500"><path d="M0 0h2500v2500H0z" fill-rule="evenodd" fill="#00274c"/><path d="M1249.987 1118.668l424.228-589.346h583.717v382.102h-161.188v673.702h161.188v385.54h-741.91v-385.54h166.351V1108.81l-432.386 575.74-432.373-575.74v476.315h166.363v385.565H242.055l.013-385.565h161.175V911.424H242.068V529.322h583.717z" fill="#f1c400" fill-rule="evenodd"/></svg>
